!!!!SEGMENT: pl-cz--ii-87--002-001_grim-jozef--spiewy-do-dwoch-mszy-kirie.krn
!!!cenid: 18xx:1173
!!!COM: Grim, Józef
!!!COM-rismid: pe30003883
!!!CDT: ~1800-~1899
!!!CNT:
!!!OPR: Śpiewy do dwóch mszy
!!!OTL: Kirie
!!!OMV: 001
!!!PDT: 1888
!!!AGN: Sacred; Mass
!!!SMS-siglum: PL-CZ
!!!SMS-shelfmark: II-87
!!!SMS-shelfwork: 002-001 M
!!!SMS-variant:
!!!SMS-altvar:
!!!NIFC-rismid: 300033225
!!!URL-scan: http://repozytorium.nifc.pl/skany/pl-cz-nut--ii-87
!!!ONB-nifc: UWAGA: części Mszy: Kirie, Gloria, Credo, Offertorium, Sanctus, Benedictus, Agnus Dei
!!!OMD: Moderato
!!!key: G
**kern	**kern	**dynam	**kern	**text
*part2	*part2	*part2	*part1	*part1
*staff3	*staff2	*	*staff1	*staff1
*I"[Organo]	*	*	*I"[Voice]	*
*Iorgan	*	*	*Ivox	*
*ICklav	*	*	*ICvox	*
*IGacmp	*	*	*IGsolo	*
*clefF4	*clefG2	*	*clefG2	*
*k[f#]	*k[f#]	*	*k[f#]	*
*G:	*G:	*	*G:	*
*M4/4	*M4/4	*	*M4/4	*
*met(c)	*met(c)	*	*met(c)	*
=1	=1	=1	=1	=1
1r	4r	.	1r	.
.	4f#/	.	.	.
.	4g/	.	.	.
.	4a/	.	.	.
=2	=2	=2	=2	=2
4r	[<1d	.	1r	.
4B 4G\	.	.	.	.
4A 4F#\	.	.	.	.
4G 4E\	.	.	.	.
=3	=3	=3	=3	=3
*	*^	*	*	*
4F# 4D\	4r	1d_<	.	1r	.
8D/L	4f#/	.	.	.	.
8C/J	.	.	.	.	.
4BB/	4g/	.	.	.	.
4AA/	4a 4f#/	.	.	.	.
=4	=4	=4	=4	=4	=4
2GG/	2b/	2g 2d\]	.	1r	.
2C/	2a 2e/	2c\	.	.	.
=5	=5	=5	=5	=5	=5
1D	2g 2d/	2B\	.	1r	.
.	2f# 2d/	2A\	.	.	.
*	*v	*v	*	*	*
=6	=6	=6	=6	=6
!LO:N:vis=2.	!	!	!LO:N:vis=1	!
2G\	2g 2d 2B/	.	2.r	.
4GG/	4r	.	.	.
!!LO:LB:g=original
=||	=||	=||	=||	=||
!	!	!LO:DY:rj	!	!
4r	4d/	f	4d/	Przy
=7	=7	=7	=7	=7
1G 1GG	[>1g 1d [<1B	.	2g/	swię-
.	.	.	4g/	-tych
.	.	.	4g/	ta-
=8	=8	=8	=8	=8
1E	1g] 1e 1B]	.	2g/	-jem-
.	.	.	4g/	-nic
!	!	!	!LO:SIC:v:l:s=stra-	!
.	.	.	4g/	sta-
=9	=9	=9	=9	=9
*^	*^	*	*	*
2C/	2ryy	2g 2e/	2ryy	.	2g/	-szli-
2C/	2CC\	2a/	2g 2e-X\	.	4a/	-wej
.	.	.	.	.	4a/	o-
=10	=10	=10	=10	=10	=10	=10
!	!LO:N:vis=4	!LO:N:vis=2.	!LO:N:vis=2.	!	!	!
2GG/	4ryy	2b/	2g 2d	.	2b\	-fie-
.	4r	.	.	.	.	.
.	.	4qqd/	.	p	.	.
.	.	4qqe/	.	.	.	.
.	.	4qqf#/	.	.	.	.
!LO:N:vis=1	!LO:N:vis=4	!LO:N:vis=2	!	!	!	!
2r	8G\	4g 4d 4B/	2ryy	.	4b;\	-rze
!	!LO:N:vis=4	!	!	!	!	!
.	8Fn\	.	.	.	.	.
!	!LO:N:vis=2	!LO:N:vis=2	!	!	!	!
.	4E\	(>4g#X 4e (<4B/	.	.	4e/	gdy
.	.	.	.	f	.	.
*	*	*v	*v	*	*	*
*v	*v	*	*	*	*
=11	=11	=11	=11	=11
!	!	!	!LO:N:vis=2.	!
1A 1AA	[>1a) 1e [<1c)	.	2a/	lud
.	.	.	4a/	Twój
.	.	.	4a/	z_mo-
=12	=12	=12	=12	=12
1Fn	1a_ 1fn (<1c]	.	2a/	-Dli-
.	.	.	4a/	-twą
.	.	.	4a/	przed
!!LO:LB:g=original
=13	=13	=13	=13	=13
*	*^	*	*	*
1D	2a/]	2f#\)	.	2a/	oł-
.	2b/	2a 2f#\	.	4b/	-tarz
.	.	.	.	4b/	się
=14	=14	=14	=14	=14	=14
!	!LO:N:vis=2.	!LO:N:vis=2.	!	!	!
2.AA;</	2cc;/	2a 2e\	.	2cc\	zbie-
.	8e/L	4ryy	.	4cc;\	-rze
.	8a/J	.	.	.	.
4AA/	4cc/	4e\	.	4cc\	wy-
=15	=15	=15	=15	=15	=15
1BB	2.b/	1d#X	.	2b\	-słu-
.	.	.	.	4b\	-chaj
.	4a/	.	.	4a/	ser-
=16	=16	=16	=16	=16	=16
(>4E\	2g/	2e\	.	2g/	-decz-
4D\)	.	.	.	.	.
2C/	2a/	4f#\	.	4a/	-ne
.	.	4e\	.	4a/	wo-
=17	=17	=17	=17	=17	=17
2BB/	1b	2d#X\	.	1b	-ła-
2D#X\	.	2f#\	.	.	.
=18	=18	=18	=18	=18	=18
2E\	2g/	2e\	mf	2g/	-nie
2r	4g/	2ryy	.	(4g/	zli-
.	4b/	.	.	4b/)	.
*	*v	*v	*	*	*
=19	=19	=19	=19	=19
(>1d [<1D	2dd 2b\	.	2dd\	-tuj
.	4cc 4a\	.	4cc\	się
.	4b 4g\	.	4b\	nad
!!LO:LB:g=original
=20	=20	=20	=20	=20
1D_>)	2b 2d/	.	2b\	na-
.	4a 4c/	.	4a/	-mi
.	4g 4B/	.	4g/	o
=21	=21	=21	=21	=21
*	*^	*	*^	*
2D\]	2g/	1d 1A	.	1dd	2g\	Pa-
2DD/	2f#/	.	.	.	2f#\	.
*	*v	*v	*	*	*	*
=22	=22	=22	=22	=22	=22
2GG/	2g 2d 2B/	.	2b/	2g\	-nie.
!	!LO:TUP:b:problem=klamra łukowa	!	!	!	!
2r	6d/	.	2r	2ryy	.
.	6g/	.	.	.	.
.	6b/	.	.	.	.
*	*	*	*v	*v	*
=23	=23	=23	=23	=23
1d 1G	2dd 2b\	.	1r	.
.	4cc 4a\	.	.	.
.	4b 4g\	.	.	.
=24	=24	=24	=24	=24
*	*^	*	*^	*
*	*	*	*	*	*^	*
!	!	!	!	!LO:TX:t=P:problem=zbędne powtórzenie partii org w takcie nr 24	!	!	!
1E	2b 2g/	2e\	.	2b 2g/	2e\	1r	.
.	4a/	4f#\	.	4a/	4f#\	.	.
.	4g/	4e\	.	4g/	4e\	.	.
*	*	*	*	*v	*v	*v	*
=25	=25	=25	=25	=25	=25
*	*clefF4	*	*	*	*
!	!	!	!	!LO:TX:t=P:problem=partia org na błędnych pięcioliniach	!
1D>	2b> 2g>/	2.d>\	.	1ryy	.
.	2a> 2f#>/	.	.	.	.
.	.	4c>\	.	.	.
=26	=26	=26	=26	=26	=26
2.G> 2.GG>\	2.g> 2.d>/	2.B>\	.	1ryy	.
4r>	4r>	4ryy	.	.	.
*	*v	*v	*	*	*
==	==	==	==	==
*-	*-	*-	*-	*-
!!!system-decoration: (<s1>s2,s3)
!!!RDF**kern: > = above
!!!RDF**kern: < = below
!!!AIN: 1 organ 1 vox
!!!ENC: Berenika Jozajtis
!!!END: 2020-11-07
!!!ENC: Andrzej Kubiczek
!!!END: 2021-11-15
